X: 0
T: MacArthur Road
C: Dave Richardson
R: reel
M: 4/4
L: 1/8
K: E
A|: "E"BG G/2G/2G Bcef | "E"~g3e fece | "F#m"f3g fece| "A"gefg fece|
"E"BG G/2G/2G Bcef | "C#m"fg-ge fece | "A"f2ge fece|1 "B"Bcef e3A :|2 "B"Bcef "E"e3g||
|: "E"be e/2e/2e be"A"c'e | "E"bg g/2g/2g bgfe |"F#m" f2fg fece|"A" aege fece|
|1"E"be e/2e/2e be"A"c'e | "E"bg g/2g/2g bgfe |"A"f2fg fece| "B"Bcef "E"e3g :|
|2"E"BG G/2G/2G Bcef | "C#m"fg-ge fece | "A"f2ge fece|"B"Bcef "E"e4|]